X:1
T:Title
%%score 1 { 2 | 3 }
L:1/8
Q:1/4=105
M:4/4
K:Eb
V:1 treble nm="Grand Piano, Soprano"
V:2 treble nm="Choir Pad, Big Ben, 10.7.10.7 D"
V:3 bass 
V:1
 E>[EG] [GB]2 [GB]2 [GB]2 | [_G=A][=GB] [_Ac]2 [Ae]2 [GB]2 | [EG]>[EG] [EG]2 [EB]2 [FA]2 | %3
w: By~Louise~Shephard,~1897 * * * *|||
 [EG]2 [DF]6 | E>[EF] [EG]2 [FA]2 [GB]2 | [G=B][FB] [Ec]2 [Ec]2 [Ee]2 | E[EF] [EG]2 [GB]2 [EG]2 | %7
w: ||||
 [DF]2 E6 | z2 [GB]>[GB] [GB][Ac] [GB]2 | [EG][GB] [Ac]2 [Ac]2 [GB]2- | [GB]2 [FA]2 [FA]2 [EG]2- | %11
w: ||||
 [EG][Ec] [EB]2 [EG]2 [DF]2 | E>[DF] [EG]2 [EG]2 [EA]2 | [EG][EA] [EB]2 [EB]2 [Ee]2 | %14
w: |||
 E>[EF] [EG]2 [EB]2 [EG]2 | [DF]2 [B,E]6- | [B,E]2 z2 z4 |] %17
w: |||
V:2
 G,>B, E2 E2 E2 | EE E2 C2 E2 | B,>B, B,2 G,2 B,2 | B,2 B,6 | G,>A, B,2 B,2[K:treble] E2 | %5
 DD C2 C2 C2 | CC[K:bass] B,2 B,2 B,2 | A,2 G,6 | z2 B,>B, B,B, B,2 | B,[K:treble]E E2 E2 E2- | %10
 E2[K:bass] B,2 B,2 B,2- | B,A, G,2 B,2 B,2 | B,>B, B,2 B,2 A,2 | B,C B,2 A,2 C2 | %14
 C>C B,2 G,2 B,2 | A,2 G,6- | G,2 z2 z4 |] %17
V:3
 E,>E, E,2 E,2 E,2 | E,E, A,2 A,2 E,2 | E,>E, E,2 E,2 D,2 | E,2 B,,6 | E,>E, E,2 E,2 E,2 | %5
 G,G, A,2 A,2 A,2 | =A,A, z2 z2 B,,2 | B,,2 E,6 | z2 E,>E, E,E, E,2 | E,E, A,2 A,2 E,2- | %10
 E,2 D,2 D,2 E,2- | E,E, E,2 E,2 B,,A, | G,>F, E,2 _D,2 C,2 | B,,A,, G,,2 G,,2 A,,2 | %14
 =A,>A, z2 B,,2 B,,2 | B,,2 E,6- | E,2 z2 z4 |] %17

